public/avatar/body/195.svg

<svg xmlns:xlink="http://www.w3.org/1999/xlink" height="82" width="84.85" xmlns="http://www.w3.org/2000/svg"><g transform="translate(37.4 42.25)"><use height="37.7" transform="matrix(-1 0 0 1 2.5 -15.7)" width="29.6" xlink:href="#a"/><use height="37.7" transform="translate(5.65 -15.7)" width="29.6" xlink:href="#a"/><use height="22.15" transform="translate(-24.3 -1.4)" width="58" xlink:href="#b"/><use height="29.05" transform="translate(-11.85 -17.45)" width="31.85" xlink:href="#c"/><use height="21.6" transform="translate(-12.25 -17.95)" width="32.65" xlink:href="#d"/><use height="31.8" transform="translate(-17.05 -.85)" width="42" xlink:href="#e"/><use height="7.4" transform="translate(22.25 5.6)" width="7.2" xlink:href="#f"/><use height="7.4" transform="matrix(-1 0 0 1 -14.55 5.85)" width="7.2" xlink:href="#f"/></g><defs><use height="37.7" width="29.6" xlink:href="#g" id="a"/><use height="29.05" width="31.85" xlink:href="#h" id="c"/><use height="21.6" width="32.65" xlink:href="#i" id="d"/><use height="7.4" width="7.2" xlink:href="#j" id="f"/><path d="M-5.3 6.75-3.15 13l1.5 7.65-6.35-2-3.85-5.1-7.3 2.45q-1.2.15-5.15-6 2.15 3.1 4.45 3.5 1.2.25 14.55-6.75m32.8 5.05q4.85-1.7 6.2-4.2-.3 3.9-5.9 8.2l-6.9-2.25-3.8 5-7.8 2.2L16.2 4.4l-4.6.2 7.05-6 6.7 7.2Q23.1 7.25 20.8 8.65l6.7 3.15" transform="translate(24.3 1.4)" id="b" fill="#d4d2d4" fill-rule="evenodd"/><path d="M27.35 7.4q2.15 4.15 3.55 8.75.8 2.65 1.1 5.3-15.95 15.25-31.85 0 .4-3.7 1.9-7.75Q3.85 8.75 7 5.05 10.1 1.3 14.7.1l1.8-.1q1.9.05 3.7.8 4.75 2.05 7.15 6.6" fill="#fff" fill-rule="evenodd" transform="translate(-.15)" id="h"/><path d="M31.9 20.6q-.3-2.25-1-4.45-1.4-4.6-3.55-8.75-2.4-4.55-7.15-6.6-2.65-1.1-5.5-.7Q10.1 1.3 7 5.05q-3.15 3.7-4.95 8.65Q.7 17.3.25 20.6" fill="none" stroke="#000" stroke-linecap="round" stroke-linejoin="round" transform="translate(.25 .5)" id="i"/><g id="g" fill-rule="evenodd"><path d="m29.45 22.55.15.95q0 3.6-6.35 9.15l-.6.5-6.8-2.2-3.55 4.4L.45 37.7.05 0 6 4.65l23.45 17.9" fill="#1c191d"/><path d="m11.45 34.25-11.3 2.2L0 1.9l28.05 21.25q.5 2.85-5.9 8.35l-7.25-2.35-3.45 5.1" fill="#fffbf8"/><path d="m23.75 19.8-1.5.85-11.75-8.3-1.8-4L23.75 19.8" fill="red"/><path d="M9.5 10.3 6.95 7 23.7 19.85l-.55.3L9.5 10.3" fill="#ffaeae"/></g><g id="e" fill-rule="evenodd"><path d="m-11.3 7.1 1.1-.55L-3.8 14l5.4 12.15-8.15-7.5L-11.3 7.1" fill="#1c191d" transform="translate(17.05 .85)"/><path d="m-10.75 6.9 6.5 7.5 5.2 10.05-7.05-6.8-4.65-10.75" fill="#fffbf8" transform="translate(17.05 .85)"/><path d="m2.4 15.55 1.55.5 1.55-.5 7.35-3.1-9.05 18.5-8.75-18.4 7.35 3" fill="#1c191d" transform="translate(17.05 .85)"/><path d="m2.25 16.1 1.5.5-.2 12-7.85-15.35 6.55 2.85" fill="#fffbf8" transform="translate(17.05 .85)"/><path d="m19 7.1-4.65 11.35L6.25 26l5.4-12 6.25-7.45 1.1.55" fill="#1c191d" transform="translate(17.05 .85)"/><path d="m18.5 6.9-4.6 10.75-7.1 7.05 5.25-10.3 6.45-7.5M4.2 16.6l7.6-3-7.45 15-.15-12" fill="#d4d2d4" transform="translate(17.05 .85)"/><path d="m3.8 19.7-.5-.05L-17.05 2.5l4.9-3.35L3.6 8.1 20.7-.75l4.25 4.2L3.8 19.7" fill="#1c191d" transform="translate(17.05 .85)"/><path d="M-.8 15.05-14.75 2.7-11.8.65l15.3 8.8-4.3 5.6M4.55 9.2 20.75.65 23 3.15 8.95 15.05 4.55 9.2" fill="#fffbf8" transform="translate(17.05 .85)"/><path d="m7.35 15.9-3.6 8.25-3.6-8.35-3.3-1.55 6.9-9.75 7 9.75q-2.8 1.5-3.4 1.65" fill="#1c191d" transform="translate(17.05 .85)"/><path d="m6.4 16.9-2.5 5.5-.15.45-.15-.45-2.4-5.6-3.45-2.6 6-8.45L9.9 14.2l-3.5 2.7" fill="red" transform="translate(17.05 .85)"/><path d="m3.65 15.45-5.9-1.25 5.8-8.15.1 9.4" fill="#ff5151" transform="translate(17.05 .85)"/><path d="m20.3 1 1.75 2.2L10.2 13.25 7 8.95Q14.8 8.9 20.3 1" fill="#d4d2d4" transform="translate(17.05 .85)"/><path d="m15.75 12.15-2.35 2.6-3.2 6.5-3.35 3.45 5.8-11.8 4.1-3.1-1 2.35" fill="#acacac" transform="translate(17.05 .85)"/><path d="m3.65 15.7 2.4-6.75L9.9 14.2l-3.5 2.7-2.65 5.85-.1-7.05" fill="#c00000" transform="translate(17.05 .85)"/><path d="m6.75 17.4 3.95-3-6.35 12.9-.1-4.15 2.5-5.75" fill="#acacac" transform="translate(17.05 .85)"/><path d="m-10.75 6.95 6.5 7.65 2.8 5.5-6.85-7.6-2.45-5.55m6.55 6.4L.9 17.6l-1.6 2.65-3.5-6.9" fill="#d4d2d4" transform="translate(17.05 .85)"/><path d="m3.65 15.35-2.35-.4 2.3-3.3.05 3.7m-.05-6.7V9.9L.25 14.7l-.95-.15 4.3-5.9" fill="#fff" transform="translate(17.05 .85)"/><path d="m3.7 15.4 1.7-.2L3.7 18v-2.6m2.25-.2.7-.1-2.95 4.65-.05-.7 2.3-3.85" fill="#ff5151" transform="translate(17.05 .85)"/></g><g id="j" fill="red" fill-rule="evenodd"><path d="m7.1 4.5-.2.65-1.2-.55.15-.4Q6.3 1.85 4.1 1.4l-.4-.05L3.75 0l.6.1q1.45.35 2.3 1.6.8 1.3.45 2.8M1.45 2.85l-.1.35Q.9 5.55 3.1 6l.35.05L3.4 7.4l-.55-.1Q1.4 7 .6 5.7T.1 2.9l.15-.5 1.2.45"/><path d="M2.45 3.35q.35-1.2 1.5-.75 1.15.4.75 1.5-.45 1.2-1.5.75-1.15-.35-.75-1.5"/></g></defs></svg>

<?xml version="1.0" encoding="UTF-8" standalone="no"?>
<svg xmlns:xlink="http://www.w3.org/1999/xlink" height="82.0px" width="84.85px" xmlns="http://www.w3.org/2000/svg">
  <g transform="matrix(1.0, 0.0, 0.0, 1.0, 37.4, 42.25)">
    <use height="37.7" transform="matrix(-1.0, 0.0, 0.0, 1.0, 2.5, -15.7)" width="29.6" xlink:href="#sprite0"/>
    <use height="37.7" transform="matrix(1.0, 0.0, 0.0, 1.0, 5.65, -15.7)" width="29.6" xlink:href="#sprite0"/>
    <use height="22.15" transform="matrix(1.0, 0.0, 0.0, 1.0, -24.3, -1.4)" width="58.0" xlink:href="#shape1"/>
    <use height="29.05" transform="matrix(1.0, 0.0, 0.0, 1.0, -11.85, -17.45)" width="31.85" xlink:href="#sprite1"/>
    <use height="21.6" transform="matrix(1.0, 0.0, 0.0, 1.0, -12.25, -17.95)" width="32.65" xlink:href="#sprite2"/>
    <use height="31.8" transform="matrix(1.0, 0.0, 0.0, 1.0, -17.05, -0.85)" width="42.0" xlink:href="#shape4"/>
    <use height="7.4" transform="matrix(1.0, 0.0, 0.0, 1.0, 22.25, 5.6)" width="7.2" xlink:href="#sprite3"/>
    <use height="7.4" transform="matrix(-1.0, 0.0, 0.0, 1.0, -14.55, 5.85)" width="7.2" xlink:href="#sprite3"/>
  </g>
  <defs>
    <g id="sprite0" transform="matrix(1.0, 0.0, 0.0, 1.0, 0.0, 0.0)">
      <use height="37.7" transform="matrix(1.0, 0.0, 0.0, 1.0, 0.0, 0.0)" width="29.6" xlink:href="#shape0"/>
    </g>
    <g id="shape0" transform="matrix(1.0, 0.0, 0.0, 1.0, 0.0, 0.0)">
      <path d="M29.45 22.55 L29.6 23.5 Q29.6 27.1 23.25 32.65 L22.65 33.15 15.85 30.95 12.3 35.35 0.45 37.7 0.05 0.0 6.0 4.65 29.45 22.55" fill="#1c191d" fill-rule="evenodd" stroke="none"/>
      <path d="M11.45 34.25 L0.15 36.45 0.0 1.9 28.05 23.15 Q28.55 26.0 22.15 31.5 L14.9 29.15 11.45 34.25" fill="#fffbf8" fill-rule="evenodd" stroke="none"/>
      <path d="M23.75 19.8 L22.25 20.65 10.5 12.35 8.7 8.35 23.75 19.8" fill="#ff0000" fill-rule="evenodd" stroke="none"/>
      <path d="M9.5 10.3 L6.95 7.0 23.7 19.85 23.15 20.15 9.5 10.3" fill="#ffaeae" fill-rule="evenodd" stroke="none"/>
    </g>
    <g id="shape1" transform="matrix(1.0, 0.0, 0.0, 1.0, 24.3, 1.4)">
      <path d="M-5.3 6.75 L-3.15 13.0 -1.65 20.65 -8.0 18.65 -11.85 13.55 -19.15 16.0 Q-20.35 16.15 -24.3 10.0 -22.15 13.1 -19.85 13.5 -18.65 13.75 -5.3 6.75" fill="#d4d2d4" fill-rule="evenodd" stroke="none"/>
      <path d="M27.5 11.8 Q32.35 10.1 33.7 7.6 33.4 11.5 27.8 15.8 L20.9 13.55 17.1 18.55 9.3 20.75 16.2 4.4 11.6 4.6 18.65 -1.4 25.35 5.8 Q23.1 7.25 20.8 8.65 L27.5 11.8" fill="#d4d2d4" fill-rule="evenodd" stroke="none"/>
    </g>
    <g id="sprite1" transform="matrix(1.0, 0.0, 0.0, 1.0, -0.15, 0.0)">
      <use height="29.05" transform="matrix(1.0, 0.0, 0.0, 1.0, 0.15, 0.0)" width="31.85" xlink:href="#shape2"/>
    </g>
    <g id="shape2" transform="matrix(1.0, 0.0, 0.0, 1.0, -0.15, 0.0)">
      <path d="M27.35 7.4 Q29.5 11.55 30.9 16.15 31.7 18.8 32.0 21.45 16.05 36.7 0.15 21.45 0.55 17.75 2.05 13.7 3.85 8.75 7.0 5.05 10.1 1.3 14.7 0.1 L16.5 0.0 Q18.4 0.05 20.2 0.8 24.95 2.85 27.35 7.4" fill="#ffffff" fill-rule="evenodd" stroke="none"/>
    </g>
    <g id="sprite2" transform="matrix(1.0, 0.0, 0.0, 1.0, 0.25, 0.5)">
      <use height="21.6" transform="matrix(1.0, 0.0, 0.0, 1.0, -0.25, -0.5)" width="32.65" xlink:href="#shape3"/>
    </g>
    <g id="shape3" transform="matrix(1.0, 0.0, 0.0, 1.0, 0.25, 0.5)">
      <path d="M31.9 20.6 Q31.6 18.35 30.9 16.15 29.5 11.55 27.35 7.4 24.95 2.85 20.2 0.8 17.55 -0.3 14.7 0.1 10.1 1.3 7.0 5.05 3.85 8.75 2.05 13.7 0.7 17.3 0.25 20.6" fill="none" stroke="#000000" stroke-linecap="round" stroke-linejoin="round" stroke-width="1.0"/>
    </g>
    <g id="shape4" transform="matrix(1.0, 0.0, 0.0, 1.0, 17.05, 0.85)">
      <path d="M-11.3 7.1 L-10.2 6.55 -3.8 14.0 1.6 26.15 -6.55 18.65 -11.3 7.1" fill="#1c191d" fill-rule="evenodd" stroke="none"/>
      <path d="M-10.75 6.9 L-4.25 14.4 0.95 24.45 -6.1 17.65 -10.75 6.9" fill="#fffbf8" fill-rule="evenodd" stroke="none"/>
      <path d="M2.4 15.55 L3.95 16.05 5.5 15.55 12.85 12.45 3.8 30.95 -4.95 12.55 2.4 15.55" fill="#1c191d" fill-rule="evenodd" stroke="none"/>
      <path d="M2.25 16.1 L3.75 16.6 3.55 28.6 -4.3 13.25 2.25 16.1" fill="#fffbf8" fill-rule="evenodd" stroke="none"/>
      <path d="M19.0 7.1 L14.35 18.45 6.25 26.0 11.65 14.0 17.9 6.55 19.0 7.1" fill="#1c191d" fill-rule="evenodd" stroke="none"/>
      <path d="M18.5 6.9 L13.9 17.65 6.8 24.7 12.05 14.4 18.5 6.9" fill="#d4d2d4" fill-rule="evenodd" stroke="none"/>
      <path d="M4.2 16.6 L11.8 13.6 4.35 28.6 4.2 16.6" fill="#d4d2d4" fill-rule="evenodd" stroke="none"/>
      <path d="M3.8 19.7 L3.3 19.65 -17.05 2.5 -12.15 -0.85 3.6 8.1 20.7 -0.75 24.95 3.45 3.8 19.7" fill="#1c191d" fill-rule="evenodd" stroke="none"/>
      <path d="M-0.8 15.05 L-14.75 2.7 -11.8 0.65 3.5 9.45 -0.8 15.05" fill="#fffbf8" fill-rule="evenodd" stroke="none"/>
      <path d="M4.55 9.2 L20.75 0.65 23.0 3.15 8.95 15.05 4.55 9.2" fill="#fffbf8" fill-rule="evenodd" stroke="none"/>
      <path d="M7.35 15.9 L3.75 24.15 0.15 15.8 -3.15 14.25 3.75 4.5 10.75 14.25 Q7.95 15.75 7.35 15.9" fill="#1c191d" fill-rule="evenodd" stroke="none"/>
      <path d="M6.4 16.9 L3.9 22.4 3.75 22.85 3.6 22.4 1.2 16.8 -2.25 14.2 3.75 5.75 9.9 14.2 6.4 16.9" fill="#ff0000" fill-rule="evenodd" stroke="none"/>
      <path d="M3.65 15.45 L-2.25 14.2 3.55 6.05 3.65 15.45" fill="#ff5151" fill-rule="evenodd" stroke="none"/>
      <path d="M20.3 1.0 L22.05 3.2 10.2 13.25 7.0 8.95 Q14.8 8.9 20.3 1.0" fill="#d4d2d4" fill-rule="evenodd" stroke="none"/>
      <path d="M15.75 12.15 L13.4 14.75 10.2 21.25 6.85 24.7 12.65 12.9 16.75 9.8 15.75 12.15" fill="#acacac" fill-rule="evenodd" stroke="none"/>
      <path d="M3.65 15.7 L6.05 8.95 9.9 14.2 6.4 16.9 3.75 22.75 3.65 15.7" fill="#c00000" fill-rule="evenodd" stroke="none"/>
      <path d="M6.75 17.4 L10.7 14.4 4.35 27.3 4.25 23.15 6.75 17.4" fill="#acacac" fill-rule="evenodd" stroke="none"/>
      <path d="M-10.75 6.95 L-4.25 14.6 -1.45 20.1 -8.3 12.5 -10.75 6.95" fill="#d4d2d4" fill-rule="evenodd" stroke="none"/>
      <path d="M-4.2 13.35 L0.9 17.6 -0.7 20.25 -4.2 13.35" fill="#d4d2d4" fill-rule="evenodd" stroke="none"/>
      <path d="M3.65 15.35 L1.3 14.95 3.6 11.65 3.65 15.35" fill="#ffffff" fill-rule="evenodd" stroke="none"/>
      <path d="M3.6 8.65 L3.6 9.9 0.25 14.7 -0.7 14.55 3.6 8.65" fill="#ffffff" fill-rule="evenodd" stroke="none"/>
      <path d="M3.7 15.4 L5.4 15.2 3.7 18.0 3.7 15.4" fill="#ff5151" fill-rule="evenodd" stroke="none"/>
      <path d="M5.95 15.2 L6.65 15.1 3.7 19.75 3.65 19.05 5.95 15.2" fill="#ff5151" fill-rule="evenodd" stroke="none"/>
    </g>
    <g id="sprite3" transform="matrix(1.0, 0.0, 0.0, 1.0, 0.0, 0.0)">
      <use height="7.4" transform="matrix(1.0, 0.0, 0.0, 1.0, 0.0, 0.0)" width="7.2" xlink:href="#shape5"/>
    </g>
    <g id="shape5" transform="matrix(1.0, 0.0, 0.0, 1.0, 0.0, 0.0)">
      <path d="M7.1 4.5 L6.9 5.15 5.7 4.6 5.85 4.2 Q6.3 1.85 4.1 1.4 L3.7 1.35 3.75 0.0 4.35 0.1 Q5.8 0.45 6.65 1.7 7.45 3.0 7.1 4.5 M1.45 2.85 L1.35 3.2 Q0.9 5.55 3.1 6.0 L3.45 6.05 3.4 7.4 2.85 7.3 Q1.4 7.0 0.6 5.7 -0.2 4.4 0.1 2.9 L0.25 2.4 1.45 2.85" fill="#ff0000" fill-rule="evenodd" stroke="none"/>
      <path d="M2.45 3.35 Q2.8 2.15 3.95 2.6 5.1 3.0 4.7 4.1 4.25 5.3 3.2 4.85 2.05 4.5 2.45 3.35" fill="#ff0000" fill-rule="evenodd" stroke="none"/>
    </g>
  </defs>
</svg>
